images/advantages-icon-11.svg

<svg width="24" height="28" viewBox="0 0 24 28" fill="none" xmlns="http://www.w3.org/2000/svg">
<path d="M11.9027 4.33203C5.62741 4.33203 0.520508 9.43884 0.520508 15.7142C0.520508 21.9894 5.62741 27.1094 11.9027 27.1094C18.1779 27.1094 23.2848 22.0025 23.2848 15.7273C23.2848 9.45203 18.1779 4.33203 11.9027 4.33203ZM12.8873 15.2941C12.8873 15.8323 12.441 16.2787 11.9027 16.2787C11.3644 16.2787 10.918 15.8323 10.918 15.2941V8.72991C10.918 8.19172 11.3644 7.7453 11.9027 7.7453C12.441 7.7453 12.8873 8.19172 12.8873 8.72991V15.2941Z" fill="white"/>
<path d="M15.6964 2.75522H8.10832C7.58312 2.75522 7.16309 2.33508 7.16309 1.80999C7.16309 1.28479 7.58312 0.851562 8.10832 0.851562H15.6964C16.2215 0.851562 16.6416 1.2717 16.6416 1.79679C16.6416 2.32199 16.2215 2.75522 15.6964 2.75522Z" fill="white"/>
</svg>

<svg width="24" height="28" fill="none" xmlns="http://www.w3.org/2000/svg"><path d="M11.903 4.332C5.627 4.332.52 9.439.52 15.714c0 6.275 5.106 11.395 11.382 11.395 6.275 0 11.382-5.107 11.382-11.382 0-6.275-5.107-11.395-11.382-11.395zm.984 10.962a.992.992 0 01-.984.985.992.992 0 01-.985-.985V8.73c0-.538.446-.985.985-.985.538 0 .984.447.984.985v6.564zm2.809-12.539H8.108a.941.941 0 01-.945-.945c0-.525.42-.958.945-.958h7.588c.525 0 .946.42.946.945 0 .525-.42.958-.946.958z" fill="#fff"/></svg>
